icons/icn_mover.svg

<svg width="24" xmlns="http://www.w3.org/2000/svg" height="24" id="screenshot-0ef66420-1100-8022-8006-9da504400b22" viewBox="0 0 24 24" xmlns:xlink="http://www.w3.org/1999/xlink" fill="none" version="1.1"><g id="shape-0ef66420-1100-8022-8006-9da504400b22"><g class="frame-container-wrapper"><g class="frame-container-blur"><g class="frame-container-shadows"><g fill="none"><g class="fills" id="fills-0ef66420-1100-8022-8006-9da504400b22"><rect rx="0" ry="0" x="0" y="0" width="24" height="24.000000000000455" transform="matrix(1, 0, 0, 1, 0, 0)" class="frame-background"/></g><g class="frame-children"><g id="shape-0ef66420-1100-8022-8006-9da1ad586746" rx="0" ry="0"><g id="shape-0ef66420-1100-8022-8006-9da0ce81576a" style="opacity: 1;"><g class="fills" id="fills-0ef66420-1100-8022-8006-9da0ce81576a"><path d="M12.080859184265137,2.3302001953125C11.868700981140137,2.327392578125,11.664599418640137,2.4085693359375,11.512499809265137,2.5567626953125L11.512499809265137,2.554443359375L8.640917778015137,5.337890625C8.325243949890137,5.64599609375,8.317919731140137,6.1522216796875,8.626025199890137,6.4686279296875C8.931445121765137,6.78564453125,9.436327934265137,6.7957763671875,9.754687309265137,6.4913330078125L11.223681449890137,5.065673828125L11.223681449890137,11.2664794921875L5.021044731140137,11.2664794921875L6.522265434265137,9.8135986328125C6.837939262390137,9.50537109375,6.844286918640137,9.0010986328125,6.537890434265137,8.6845703125C6.390429496765137,8.5323486328125,6.189257621765137,8.4442138671875,5.976855278015137,8.4405517578125C5.765673637390137,8.4359130859375,5.561816215515137,8.5152587890625,5.408495903015137,8.6611328125L2.537890672683716,11.444580078125C2.382861375808716,11.5916748046875,2.293505907058716,11.794677734375,2.289599657058716,12.0078125C2.284960985183716,12.221435546875,2.366259813308716,12.427734375,2.514941453933716,12.581298828125L5.306200981140137,15.452392578125C5.614306449890137,15.76708984375,6.118945121765137,15.7740478515625,6.434618949890137,15.4671630859375C6.750292778015137,15.159423828125,6.756640434265137,14.6546630859375,6.450243949890137,14.338623046875L5.016406059265137,12.86181640625L11.225390434265137,12.86181640625L11.225390434265137,19.0667724609375L9.772265434265137,17.571044921875C9.463915824890137,17.255859375,8.959277153015137,17.2490234375,8.643603324890137,17.5557861328125C8.327197074890137,17.864013671875,8.320605278015137,18.3701171875,8.627978324890137,18.6866455078125L11.411913871765137,21.5577392578125C11.719042778015137,21.872802734375,12.223925590515137,21.8792724609375,12.540331840515137,21.5728759765625L15.411913871765137,18.78955078125C15.728320121765137,18.483642578125,15.738574028015137,17.9788818359375,15.434130668640137,17.6605224609375C15.286425590515137,17.5069580078125,15.082568168640137,17.4188232421875,14.869433403015137,17.416015625C14.655322074890137,17.4132080078125,14.449511528015137,17.495849609375,14.297167778015137,17.645751953125L12.829150199890137,19.0654296875L12.829150199890137,12.8623046875L19.039112091064453,12.8623046875L17.537891387939453,14.315673828125C17.382862091064453,14.4627685546875,17.293506622314453,14.665771484375,17.289600372314453,14.87890625C17.284961700439453,15.092529296875,17.366260528564453,15.298828125,17.514942169189453,15.452392578125C17.663379669189453,15.6060791015625,17.866504669189453,15.6942138671875,18.080371856689453,15.6968994140625C18.293750762939453,15.69970703125,18.499317169189453,15.6171875,18.651660919189453,15.4671630859375L21.523242950439453,12.6842041015625C21.837940216064453,12.3759765625,21.844287872314453,11.8717041015625,21.537891387939453,11.5552978515625L18.754932403564453,8.6842041015625C18.607471466064453,8.5318603515625,18.406299591064453,8.4437255859375,18.193897247314453,8.4400634765625C17.982715606689453,8.4354248046875,17.778858184814453,8.514892578125,17.625537872314453,8.66064453125C17.309131622314453,8.966552734375,17.298877716064453,9.47119140625,17.603321075439453,9.78955078125L19.030811309814453,11.2659912109375L12.827441215515137,11.2659912109375L12.827441215515137,5.06103515625L14.280566215515137,6.5572509765625C14.588915824890137,6.872314453125,15.093554496765137,6.8787841796875,15.409960746765137,6.572509765625C15.726611137390137,6.2666015625,15.736620903015137,5.7618408203125,15.432177543640137,5.4434814453125L12.641894340515137,2.5723876953125C12.494189262390137,2.420654296875,12.292040824890137,2.3333740234375,12.080859184265137,2.3302001953125Z" style="font-variant: normal; stroke-opacity: 1; vector-effect: none; stroke: none; word-spacing: normal; text-decoration-color: rgb(0, 0, 0); isolation: auto; baseline-shift: baseline; color: rgb(0, 0, 0); fill-rule: nonzero; text-transform: none; overflow: visible; font-variation-settings: normal; image-rendering: auto; stroke-dashoffset: 0; font-stretch: normal; text-anchor: start; font-feature-settings: normal; text-indent: 0px; font-family: sans-serif; writing-mode: lr-tb; letter-spacing: normal; color-rendering: auto; text-orientation: mixed; stroke-linejoin: round; font-style: normal; font-weight: normal; stroke-dasharray: none; white-space: normal; stroke-miterlimit: 4; text-align: start; display: inline; shape-rendering: auto; line-height: normal; font-size: medium; text-rendering: auto; stop-color: rgb(0, 0, 0); dominant-baseline: auto; stroke-linecap: round; inline-size: 0px; visibility: visible; direction: ltr; text-decoration-style: solid; shape-margin: 0px; color-interpolation: srgb; clip-rule: nonzero; text-decoration-line: none; color-interpolation-filters: linearrgb; fill: rgb(0, 0, 0); fill-opacity: 1;"/></g></g></g></g></g></g></g></g></g></svg>

<svg fill="none" viewBox="0 0 24 24"><g class="frame-container-wrapper"><g class="frame-container-blur"><g class="frame-container-shadows"><g class="fills"><rect width="24" height="24" class="frame-background" rx="0" ry="0"/></g><g class="frame-children"><path fill="#000" d="M12.0809 2.3302a.7984.7984 0 0 0-.5684.2266v-.0024L8.6409 5.338c-.3157.3081-.323.8143-.0149 1.1307.3054.317.8103.3272 1.1287.0227l1.469-1.4256v6.2008H5.021l1.5013-1.4529a.7998.7998 0 0 0 .0156-1.129.8.8 0 0 0-.561-.244.7986.7986 0 0 0-.5684.2205l-2.8706 2.7835a.7967.7967 0 0 0-.2483.5632.7994.7994 0 0 0 .2253.5735l2.7913 2.871c.3081.3148.8127.3217 1.1284.0149.3157-.3078.322-.8125.0156-1.1286l-1.4338-1.4768h6.209v6.205L9.7723 17.571c-.3084-.3151-.813-.322-1.1287-.0152a.8004.8004 0 0 0-.0156 1.1308l2.784 2.8711c.307.3151.812.3216 1.1283.0152l2.8716-2.7833a.801.801 0 0 0 .0222-1.129.8004.8004 0 0 0-1.137-.0148l-1.468 1.4196v-6.2031h6.21l-1.5012 1.4534a.7967.7967 0 0 0-.2483.5632.7994.7994 0 0 0 .2253.5735.7995.7995 0 0 0 1.1368.0148l2.8715-2.783a.8005.8005 0 0 0 .0147-1.1289l-2.783-2.8711a.7996.7996 0 0 0-.561-.2441.7991.7991 0 0 0-.5684.2205.8008.8008 0 0 0-.0222 1.129l1.4275 1.4764h-6.2034V5.061l1.4532 1.4963a.8009.8009 0 0 0 1.1294.0152.8007.8007 0 0 0 .0222-1.129l-2.7903-2.8711a.8008.8008 0 0 0-.561-.2422Z" class="fills" color="#000" color-interpolation="srgb" color-interpolation-filters="linearrgb" font-family="sans-serif" font-weight="400" overflow="visible" style="text-decoration-color:#000;isolation:auto;text-transform:none;font-variation-settings:normal;font-feature-settings:normal;text-indent:0;text-orientation:mixed;white-space:normal;text-align:start;line-height:normal;inline-size:0;text-decoration-style:solid;shape-margin:0;text-decoration-line:none"/></g></g></g></g></svg>
